!!!!SEGMENT: d-b--slg-bohn-ms-mus-111--027_jarzebski-adam--canzoni-e-concerti-27-canzon-quarta.krn
!!!cenid: 16xx:1800
!!!COM: Jarzębski, Adam
!!!COM-rismID: pe30017782
!!!CDT:
!!!CNT:
!!!GTL: Canzoni e Concerti
!!!OTL: 27. Canzon Quarta
!!!PDT: 1627
!!!AGN:
!!!SMS-siglum: D-B
!!!SMS-shelfmark: Slg Bohn Ms.mus. 111
!!!SMS-shelfwork: 027 G
!!!SMS-variant:
!!!SMS-altvar:
!!!NIFC-rismSourceID: 1001062014
!!!NIFC-rismChildID: 1001062014
!!!NIFC-islandoraID:
!!!URL-pdf-islandora:
!!!URL-scan: https://digital.staatsbibliothek-berlin.de/werkansicht/?PPN=PPN1049147219
!!!ONB-nifc: UWAGA: Prima vox: s. 41, Seconda vox: s. 101, Bassus sive Vox Tertia: s. 140, Basso: s. 185, Basso continuo: s. 216. Uwaga: proszę wpisywać partie tylko występujące w danym koncercie i nazywać partie wg określeń podawanych przy danym utworze. Kody instr. dla humdrumowców podane zostaną na forum.
!!!AIN: 1 bass 3 vox
!!!key: G
**kern	**fba	**kern	**kern	**kern	**kern
*part5	*part5	*part4	*part3	*part2	*part1
*staff5	*	*staff4	*staff3	*staff2	*staff1
*I"Basso continuo	*	*I"Basso	*I"Tertia Vox	*I"Seconda Vox	*I"Prima Vox
*I'bc	*	*I'B	*I'V 3	*I'V 2	*I'V 1
*	*	*ICvox	*ICvox	*ICvox	*ICvox
*	*	*Ibass	*Ivox	*Ivox	*Ivox
*IGcont	*	*	*	*	*
*clefF4	*	*clefF4	*clefC4	*clefC4	*clefG2
*	*	*	*mclefGv2	*mclefG2	*
*k[]	*	*k[]	*k[]	*k[]	*k[]
*G:	*	*G:	*G:	*G:	*G:
*M2/1	*	*M2/1	*M2/1	*M2/1	*M2/1
*met(C|)	*	*met(C|)	*met(C|)	*met(C|)	*met(C|)
*mmet(C)	*	*mmet(C)	*mmet(C)	*mmet(C)	*mmet(C)
=1-	=1-	=1-	=1-	=1-	=1-
!!LO:TX:t=P:problem:all\right or middle	!	!	!	!
*2\right	*	*	*	*	*
2G\	.	0r	1r	2G/	00r
4G\	.	.	.	4G/	.
4G\	.	.	.	4G/	.
2D/	.	.	4r	1d	.
.	.	.	4D/	.	.
4D/	.	.	4D/	.	.
!LO:TX:t=P:problem:kreska pseudotaktowa	!	!	!	!	!
4D/	.	.	4D/	.	.
=2-	=2-	=2-	=2-	=2-	=2-
2GG/	.	2GG/	4.G/	8r	.
.	.	.	.	8B\L	.
.	.	.	.	8B\	.
.	.	.	8A/	8c\J	.
4GG/	.	4GG/	4B\	4d\	.
4GG/	.	4GG/	2G/	4B\	.
!LO:TX:t=P:problem:kreska pseudotaktowa	!	!	!	!	!
1D	4#r	1D	.	2A/	.
.	.	.	8F#X/L	.	.
.	.	.	8E/J	.	.
.	.	.	2F#X/	2A/	.
=3-	=3-	=3-	=3-	=3-	=3-
!LO:TX:t=P:problem:kreska pseudotaktowa	!	!	!LO:TX:t=P:problem:kreska pseudotaktowa	!	!
0GG	.	0GG	1G	1B	4r
.	.	.	.	.	4dd\
.	.	.	.	.	4dd\
.	.	.	.	.	4dd\
*	*	*	*	*	*2\right
.	.	.	2r	4r	2gg\
.	.	.	.	4G/	.
.	.	.	8r	4G/	8r
.	.	.	8B\L	.	8dd\L
!	!	!	!	!LO:TX:t=P:problem:kreska pseudotaktowa	!
.	.	.	8B\	4G/	8dd\
.	.	.	8c\J	.	8ee\J
=4-	=4-	=4-	=4-	=4-	=4-
2D/	3	4r	4d\	2D/	4ff#X\
.	.	4D/	4B\	.	2gg\
!	!	!	!LO:TX:t=P:problem:kreska pseudotaktowa	!	!
4D/	4	4D/	2A/	2r	.
4D/	#	4D/	.	.	4ff#X\
!LO:TX:t=P:problem:kreska pseudotaktowa	!	!	!	!	!
1GG	.	1GG	8B/L	8r	1gg
.	.	.	8G/	8B\L	.
.	.	.	8G/	8B\	.
.	.	.	8A/J	8c\J	.
*	*	*	*custos:B	*	*
!	!	!	!LO:LB:g=original	!	!
.	.	.	4B\	4d\	.
!	!	!	!LO:TX:t=P:problem:kreska pseudotaktowa	!	!
.	.	.	4G/	4B\	.
*custos:D	*	*	*	*custos:A	*
!LO:LB:g=original	!	!	!	!LO:LB:g=original	!
=5-	=5-	=5-	=5-	=5-	=5-
4D/	.	8r	4.F#X/	2A/	2r
.	.	8D/L	.	.	.
8D\L	.	8D/	.	.	.
8E\J	.	8E/J	8G/	.	.
!	!	!	!	!LO:TX:t=P:problem:kreska pseudotaktowa	!
4F#X\	6	4F#X\	4A/	2r	8r
.	.	.	.	.	8dd\L
!LO:TX:t=P:problem:kreska pseudotaktowa	!	!	!	!	!
4G\	-	4G\	4B-X\	.	8dd\
.	.	.	.	.	8ee\J
[<2D/	#	0D	2.A/	8r	4.ff#X\
.	.	.	.	8d\L	.
.	.	.	.	8d\	.
.	.	.	.	8e\J	8gg\
!LO:TX:t=P:problem:kreska pseudotaktowa	!	!	!	!	!
2D/]	3:4	.	.	4f#X\	4aa\
*	*	*	*	*2\right	*
.	.	.	4B-X\	2g\	4dd\
*	*	*	*	*	*custos:dd
!	!	!	!	!	!LO:LB:g=original
=6-	=6-	=6-	=6-	=6-	=6-
1D	4#r	.	1A	.	4r
.	.	.	.	8f#\L	4dd\
.	.	.	.	8e\J	.
.	.	.	.	2f#X\	4.dd\
.	.	.	.	.	8cc\
!LO:TX:t=P:problem:kreska pseudotaktowa	!	!	!	!	!
1GG	.	0GG	2r	1g	1b
*	*	*	*2\right	*	*
.	.	.	2d\	.	.
*	*	*custos:G	*	*	*
!	!	!LO:LB:g=original	!	!	!
=7-	=7-	=7-	=7-	=7-	=7-
1GG	.	.	2.d\	2r	1r
.	.	.	.	2d\	.
.	.	.	4c\	.	.
!LO:TX:t=P:problem:kreska pseudotaktowa	!	!	!	!	!
1G	5:4:5:6 3:2:3:4	1G	4Bny\	2.d\	2r
.	.	.	4A/	.	.
.	.	.	4B\	.	2gg\
.	.	.	4e\	4c\	.
=8-	=8-	=8-	=8-	=8-	=8-
*	*	*2\right	*	*	*
2G\	.	2G\	2d\	4B\	2.gg\
.	.	.	.	4A/	.
2G\	.	2G\	2d\	2B\	.
.	.	.	.	.	4ffny\
2C/	.	2C/	1.e	1c	4ee\
.	.	.	.	.	4dd\
4c\	.	4c\	.	.	2ee\
!LO:TX:t=P:problem:kreska pseudotaktowa	!	!	!	!	!
4B\	.	4B\	.	.	.
=9-	=9-	=9-	=9-	=9-	=9-
4A\	.	4A\	.	2r	1cc
4G\	.	4G\	.	.	.
4Fny\	.	4Fny\	2.f\	2.a\	.
4E\	.	4E\	.	.	.
*custos:D	*	*	*	*	*
!LO:LB:g=original	!	!	!	!	!
!LO:TX:t=P:problem:kreska pseudotaktowa	!	!	!	!	!
1D	.	1D	.	.	1r
.	.	.	4e\	4g\	.
.	.	.	1d\	2fny\	.
=10-	=10-	=10-	=10-	=10-	=10-
1A	4#r	1A	.	1e	4r
.	.	.	.	.	4aa\
.	.	.	2c#X\	.	4.aa\
.	.	.	.	.	8gg\
2D/	#	4r	2d\	1d	4ff#X\
.	.	4D/	.	.	16dd\LL
.	.	.	.	.	16ee\
.	.	.	.	.	16ff#Xi\
.	.	.	.	.	16gg\JJ
*	*	*	*custos:B	*	*
!	!	!	!LO:LB:g=original	!	!
4D/	.	4D/	8r	.	8aa\L
.	.	.	8B\	.	8gg\
!LO:TX:t=P:problem:kreska pseudotaktowa	!	!	!	!	!
4D/	.	4D/	8d\L	.	8ff#Xi\
.	.	.	16c#\L	.	8ee\J
.	.	.	16B\JJ	.	.
*	*	*	*	*	*custos:ff#
!	!	!	!	!	!LO:LB:g=original
=11-	=11-	=11-	=11-	=11-	=11-
1D	3:4#r	1D	4A/	4r	4ff#X\
.	.	.	4B\	4d\	2gg\
.	.	.	2A/	4.d\	.
.	.	.	.	.	4ff#X\
.	.	.	.	8c\	.
*	*	*	*	*custos:B	*
!	!	!	!	!LO:LB:g=original	!
2GG/	.	2GG/	1G	4B\	1gg
.	.	.	.	16G\LL	.
.	.	.	.	16A\	.
.	.	.	.	16B\	.
.	.	.	.	16c\JJ	.
4GG/	.	4GG/	.	8d\L	.
.	.	.	.	8c\	.
!LO:TX:t=P:problem:kreska pseudotaktowa	!	!	!	!	!
4GG/	.	4GG/	.	8B\	.
!	!	!	!	!LO:TX:t=P:problem:kreska pseudotaktowa	!
.	.	.	.	8A\J	.
=12-	=12-	=12-	=12-	=12-	=12-
1GG	3:4:3	1GG	4r	4B\	1r
.	.	.	4G/	2c\	.
.	.	.	4.G/	.	.
.	.	.	.	4B\	.
!	!	!	!LO:TX:t=P:problem:kreska pseudotaktowa	!	!
.	.	.	8Fny/	.	.
!LO:TX:t=P:problem:kreska pseudotaktowa	!	!	!	!	!
1C	.	1C	4E/	1c	4r
.	.	.	16C/LL	.	4gg\
.	.	.	16D/	.	.
.	.	.	16E/	.	.
.	.	.	16F/JJ	.	.
.	.	.	8G/L	.	4.gg\
.	.	.	8F/	.	.
.	.	.	8E/	.	.
.	.	.	8D/J	.	8ffny\
*	*	*custos:C	*	*	*
!	!	!LO:LB:g=original	!	!	!
=13-	=13-	=13-	=13-	=13-	=13-
2C/	.	4r	2C/	4r	4ee\
.	.	4C/	.	4e\	16cc\LL
.	.	.	.	.	16dd\
.	.	.	.	.	16ee\
.	.	.	.	.	16ff\JJ
4.C/	.	4.C/	2r	4e\	8gg\L
.	.	.	.	.	8ff\
.	.	.	.	8c\L	8ee\
!	!	!	!	!LO:TX:t=P:problem:kreska pseudotaktowa	!
8BB/	.	8BB/	.	8d\J	8dd\J
4AA/	.	4AA/	2r	4e\	2cc\
4FF/	.	16FF/LL	.	16A\LL	.
.	.	16GG/	.	16B\	.
.	.	16AA/	.	16c\	.
.	.	16BB/JJ	.	16d\JJ	.
8C/L	.	8C/L	4r	8e\L	2r
8BB/	.	8BB/	.	8d\	.
8AA/	.	8AA/	4e\	8c\	.
!LO:TX:t=P:problem:kreska pseudotaktowa	!	!	!	!	!
8GG/J	.	8GG/J	.	8B\J	.
*custos:AA	*	*	*	*	*
!LO:LB:g=original	!	!	!	!	!
=14-	=14-	=14-	=14-	=14-	=14-
1AA	3:4#r	1AA	4e\	4c#X\	4r
.	.	.	4f\	2d\	4aa\
.	.	.	2e\	.	4.aa\
.	.	.	.	4c#X\	.
.	.	.	.	.	8gg\
2D/	#	2D/	2d\	1d	4ff#X\
.	.	.	.	.	16dd\LL
.	.	.	.	.	16ee\
.	.	.	.	.	16ff#Xi\
.	.	.	.	.	16gg\JJ
*	*	*	*custos:B	*	*custos:aa
!	!	!	!LO:LB:g=original	!	!LO:LB:g=original
4D/	.	4D/	8r	.	8aa\L
.	.	.	8B\L	.	8gg\
!LO:TX:t=P:problem:kreska pseudotaktowa	!	!	!	!	!
4D/	.	4D/	8d\	.	8ff#Xi\
.	.	.	16cny\L	.	8ee\J
.	.	.	16B\JJ	.	.
*	*	*	*	*custos:d	*
!	!	!	!	!LO:LB:g=original	!
=15-	=15-	=15-	=15-	=15-	=15-
1D	3:4#r	1D	4A/	4r	4ff#X\
.	.	.	4B\	4d\	2gg\
.	.	.	2A/	4.d\	.
.	.	.	.	.	4ff#X\
!	!	!	!	!LO:TX:t=P:problem:kreska pseudotaktowa	!
.	.	.	.	8cny\	.
2GG/	.	2GG/	1G	4B\	1gg
.	.	.	.	16G/LL	.
.	.	.	.	16A/	.
.	.	.	.	16B/	.
.	.	.	.	16c/JJ	.
4GG/	.	4GG/	.	8d\L	.
.	.	.	.	8c\	.
!LO:TX:t=P:problem:kreska pseudotaktowa	!	!	!	!	!
4GG/	.	4GG/	.	8B\	.
!	!	!	!	!LO:TX:t=P:problem:kreska pseudotaktowa	!
.	.	.	.	8A\J	.
=16-	=16-	=16-	=16-	=16-	=16-
1GG	3:4:3	1GG	4r	4B\	1r
.	.	.	4G/	2c\	.
.	.	.	4.G/	.	.
.	.	.	.	4B\	.
!	!	!	!LO:TX:t=P:problem:kreska pseudotaktowa	!	!
.	.	.	8F/	.	.
!LO:TX:t=P:problem:kreska pseudotaktowa	!	!	!	!	!
1C	.	1C	4E/	1c	4r
.	.	.	16C/LL	.	4gg\
.	.	.	16D/	.	.
.	.	.	16E/	.	.
.	.	.	16F/JJ	.	.
.	.	.	8G/L	.	4.gg\
.	.	.	8F/	.	.
.	.	.	8E/	.	.
.	.	.	8D/J	.	8ffny\
=17-	=17-	=17-	=17-	=17-	=17-
2C/	.	4r	2C/	4r	4ee\
.	.	4C/	.	4e\	16cc\LL
.	.	.	.	.	16dd\
.	.	.	.	.	16ee\
.	.	.	.	.	16ff\JJ
4.C/	.	4.C/	2r	4e\	8gg\L
.	.	.	.	.	8ff\
.	.	.	.	8c\L	8ee\
!	!	!	!	!LO:TX:t=P:problem:kreska pseudotaktowa	!
8BB/	.	8BB/	.	8d\J	8dd\J
*	*	*custos:AA	*	*	*
!	!	!LO:LB:g=original	!	!	!
4AA/	.	4AA/	2r	4e\	2cc\
4FF/	.	16FF/LL	.	16A\LL	.
.	.	16GG/	.	16B\	.
.	.	16AA/	.	16c\	.
.	.	16BB/JJ	.	16d\JJ	.
8C/L	.	8C/L	4r	8e\L	2r
8BB/	.	8BB/	.	8d\	.
8AA/	.	8AA/	4e\	8c\	.
!LO:TX:t=P:problem:kreska pseudotaktowa	!	!	!	!	!
8GG/J	.	8GG/J	.	8B\J	.
*custos:AA	*	*	*	*custos:c#	*
!LO:LB:g=original	!	!	!	!LO:LB:g=original	!
=18-	=18-	=18-	=18-	=18-	=18-
1AA	3:4#r	1AA	4e\	4c#X\	4r
.	.	.	4f\	2d\	4aa\
.	.	.	2e\	.	4.aa\
.	.	.	.	4c#X\	.
.	.	.	.	.	8gg\
*	*	*	*custos:d	*	*custos:ff#
!LO:TX:t=P:problem:kreska pseudotaktowa	!	!	!LO:LB:g=original	!	!LO:LB:g=original
1D	#	1D	2d\	2d\	2ff#X\
.	.	.	8r	8r	2r
.	.	.	8F#X/L	8d\L	.
.	.	.	8F#/	8d\	.
!	!	!	!	!LO:TX:t=P:problem:kreska pseudotaktowa	!
.	.	.	8G/J	8e\J	.
=19-	=19-	=19-	=19-	=19-	=19-
2D/	#	2r	2A/	2f#X\	1r
2GG/	-	2GG/	2B-X\	1g	.
!LO:TX:t=P:problem:kreska pseudotaktowa	!	!	!	!	!
1D	4#r	1D	1A	.	4r
.	.	.	.	.	4dd\
.	.	.	.	2f#X\	4.dd\
.	.	.	.	.	8cc\
=20-	=20-	=20-	=20-	=20-	=20-
*M3/1	*	*M3/1	*M3/1	*M3/1	*M3/1
*met(3)	*	*met(3)	*met(3)	*met(3)	*met(3)
1.GG	.	1GG	2.G/	1g	2.b/
.	.	.	4F#Xi/	.	4a/
.	.	2r	4G/	2r	4b/
.	.	.	4A/	.	4cc\
1G	.	1G	2.Bny\	0.r	2.dd\
.	.	.	4A/	.	4cc\
!LO:TX:t=P:problem:kreska pseudotaktowa	!	!	!	!	!
2G\	.	2G\	4B\	.	4dd\
.	.	.	4c\	.	4ee\
=21-	=21-	=21-	=21-	=21-	=21-
2D/	.	2D/	1d	.	2ffny\
1A	4#r	1A	.	.	1ee
.	.	.	2c#X\	.	.
!LO:TX:t=P:problem:kreska pseudotaktowa	!	!	!	!LO:N:vis=1	!
1.D	#	1.D	1d	1.r	1dd
.	.	.	2r	.	2r
*	*	*custos:G	*	*	*
!	!	!LO:LB:g=original	!	!	!
=22-	=22-	=22-	=22-	=22-	=22-
!	!	!	!LO:TX:t=P:problem: VHV nie wyświetla pauzy	!	!LO:TX:t=P:problem: VHV nie wyświetla pauzy
2.G\	.	2.G\	0.r	2.B\	0.r
4F\	.	4F\	.	4A/	.
4G\	.	4G\	.	4B\	.
4A\	.	4A\	.	4cny\	.
!LO:TX:t=P:problem:kreska pseudotaktowa	!	!	!	!	!
1.G	.	2.B\	.	2.d\	.
.	.	4A\	.	4c\	.
.	.	4B\	.	4d\	.
.	.	4c\	.	4e\	.
*custos:F	*	*	*	*custos:f	*
!LO:LB:g=original	!	!	!	!LO:LB:g=original	!
=23-	=23-	=23-	=23-	=23-	=23-
!	!	!	!	!	!LO:N:vis=1
2F\	.	2F\	2A/	2fny\	1.r
1G	.	1G	1B	1d	.
*	*	*	*custos:c	*	*
!	!	!	!LO:LB:g=original	!	!
1C	.	1C	2.cny\	1c	2.ee\
.	.	.	4B\	.	4dd\
!LO:TX:t=P:problem:kreska pseudotaktowa	!	!	!	!	!
2C/	.	2r	4c\	2r	4ee\
.	.	.	4d\	.	4ff\
*	*	*	*	*	*custos:gg
!	!	!	!	!	!LO:LB:g=original
=24-	=24-	=24-	=24-	=24-	=24-
2.C/	.	2.C/	2.e\	2.c\	2.gg\
4C/	.	4C/	4e\	4c\	4gg\
2D/	.	2D/	2d\	2A/	2ff\
2D/	.	2D/	1d	2a\	2ff\
!LO:TX:t=P:problem:kreska pseudotaktowa	!	!	!	!	!
1AA	4#r	1AA	.	2.a\	1ee
.	.	.	2c#X\	.	.
.	.	.	.	4g\	.
=25-	=25-	=25-	=25-	=25-	=25-
1.D	#	1D	1d	1f#X	1dd
.	.	2r	2r	2r	2r
!	!	!LO:N:vis=1	!	!	!LO:N:vis=1
1GG	.	1.r	2.G/	2.B\	1.r
.	.	.	4F#Xi/	4A/	.
!LO:TX:t=P:problem:kreska pseudotaktowa	!	!	!	!	!
2GG/	.	.	4G/	4B\	.
.	.	.	4A/	4c\	.
=26-	=26-	=26-	=26-	=26-	=26-
2.GG/	.	2.GG/	2.B\	2.d\	2.gg\
4GG/	.	4GG/	4B\	4d\	4gg\
2C/	.	2C/	2G/	2c\	2ee\
*	*	*custos:GG	*	*	*
!	!	!LO:LB:g=original	!	!	!
2GG/	.	2GG/	1G	2B\	2dd\
!LO:TX:t=P:problem:kreska pseudotaktowa	!	!	!	!	!
1D	4#r	1D	.	1A	1dd
.	.	.	2F#X/	.	.
=27-	=27-	=27-	=27-	=27-	=27-
1.GG	.	1.GG	1G	1B	1b
.	.	.	2r	2r	2r
*custos:G	*	*	*	*	*
!LO:LB:g=original	!	!	!LO:N:vis=1	!LO:N:vis=1	!
2.G\	.	2.G\	1.r	1.r	2.b/
4F\	.	4F\	.	.	4a/
4G\	.	4G\	.	.	4b/
!LO:TX:t=P:problem:kreska pseudotaktowa	!	!	!	!	!
4A\	.	4A\	.	.	4cc\
*	*	*	*	*custos:g	*
!	!	!	!	!LO:LB:g=original	!
=28-	=28-	=28-	=28-	=28-	=28-
2.G\	.	2.G\	2.B\	2.g\	2.dd\
4G\	.	4G\	4B\	4g\	4dd\
2C/	.	2C/	2G/	2e\	2cc\
*	*	*	*custos:G	*	*custos:b
!	!	!	!LO:LB:g=original	!	!LO:LB:g=original
2GG/	.	2GG/	1G	2d\	2b/
!LO:TX:t=P:problem:kreska pseudotaktowa	!	!	!	!	!
1D	4#r	1D	.	2.d\	1a
.	.	.	2F#X/	.	.
.	.	.	.	4c\	.
=29-	=29-	=29-	=29-	=29-	=29-
*M2/1	*	*M2/1	*M2/1	*M2/1	*M2/1
*met(C|)	*	*met(C|)	*met(C|)	*met(C|)	*met(C|)
*mmet(C)	*	*mmet(C)	*mmet(C)	*mmet(C)	*mmet(C)
1GG	.	1GG	1G	4.B\	1g
.	.	.	.	8G/	.
.	.	.	.	4G/	.
.	.	.	.	4G/	.
2D/	.	1r	4r	1d	0r
.	.	.	4D/	.	.
4D/	.	.	4D/	.	.
!LO:TX:t=P:problem:kreska pseudotaktowa	!	!	!	!	!
4D/	.	.	4D/	.	.
=30-	=30-	=30-	=30-	=30-	=30-
2GG/	.	2GG/	4.G/	8r	.
.	.	.	.	8B\L	.
.	.	.	.	8B\	.
.	.	.	8A/	8c\J	.
4GG/	.	4GG/	4B\	4d\	.
4GG/	.	4GG/	2G/	4B\	.
!LO:TX:t=P:problem:kreska pseudotaktowa	!	!	!	!	!
1D	4#r	1D	.	2A/	1r
.	.	.	8F#X/L	.	.
.	.	.	8E/J	.	.
.	.	.	2F#X/	2A/	.
=31-	=31-	=31-	=31-	=31-	=31-
0GG	.	0GG	1G	1B	4r
.	.	.	.	.	4dd\
.	.	.	.	.	4dd\
.	.	.	.	.	4dd\
.	.	.	2r	4r	2gg\
.	.	.	.	4G/	.
.	.	.	8r	4G/	8r
.	.	.	8B\L	.	8dd\L
.	.	.	8B\	4G/	8dd\
.	.	.	8cny\J	.	8ee\J
*	*	*custos:D	*	*	*
!	!	!LO:LB:g=original	!	!	!
=32-	=32-	=32-	=32-	=32-	=32-
2D/	3	4r	4d\	2D/	4ff#X\
.	.	4D/	4B\	.	2gg\
4D/	4	4D/	2A/	2r	.
4D/	#	4D/	.	.	4ff#X\
!LO:TX:t=P:problem:kreska pseudotaktowa	!	!	!	!	!
*	*	*	*custos:B	*	*
!	!	!	!LO:LB:g=original	!	!
1GG	.	1GG	8B\L	8r	1gg
*	*	*	*	*custos:B	*
!	!	!	!	!LO:LB:g=original	!
.	.	.	8G\	8B\L	.
.	.	.	8G\	8B\	.
.	.	.	8A\J	8c\J	.
.	.	.	4B\	4d\	.
.	.	.	4G/	4B\	.
*custos:D	*	*	*	*	*
!LO:LB:g=original	!	!	!	!	!
=33-	=33-	=33-	=33-	=33-	=33-
4D/	.	8r	4.F#X/	2A/	2r
.	.	8D\L	.	.	.
8D\L	.	8D\	.	.	.
8E\J	.	8E\J	8G/	.	.
4F#X\	6	4F#X\	4A/	2r	8r
.	.	.	.	.	8dd\L
4G\	-	4G\	4B-X\	.	8dd\
.	.	.	.	.	8ee\J
*	*	*	*	*	*custos:ff#
!LO:TX:t=P:problem:kreska pseudotaktowa	!	!	!	!	!LO:LB:g=original
[<1D	#	0D	2.A\	8r	4.ff#X\
.	.	.	.	8d\L	.
.	.	.	.	8d\	.
.	.	.	.	8e\J	8gg\
.	.	.	.	4f#X\	4aa\
.	.	.	4B-X\	2g\	4dd\
=34-	=34-	=34-	=34-	=34-	=34-
1D]	4#r	.	1A	.	4r
.	.	.	.	8f#\L	4dd\
.	.	.	.	8e\J	.
.	.	.	.	2f#X\	4.dd\
.	.	.	.	.	8cc\
!LO:TX:t=P:problem:kreska pseudotaktowa	!	!	!	!	!
[<1GG	.	0GG	4r	4g\	1b
.	.	.	4Bny\	4d\	.
.	.	.	4.B\	4.d\	.
!	!	!	!LO:TX:t=P:problem:kreska pseudotaktowa	!LO:TX:t=P:problem:kreska pseudotaktowa	!
.	.	.	8A/	8c\	.
=35-	=35-	=35-	=35-	=35-	=35-
1GG]	.	.	4G/	4B\	0r
.	.	.	16B\LL	16G/LL	.
.	.	.	16c\	16A/	.
.	.	.	16d\	16B/	.
.	.	.	16e\JJ	16c/JJ	.
*	*	*	*	*custos:B	*
!	!	!	!	!LO:LB:g=original	!
.	.	.	8d\L	8B\L	.
.	.	.	8c\	8e\	.
.	.	.	8B\	8d\	.
.	.	.	8A\J	8c\J	.
*	*	*	*custos:B	*	*
!	!	!	!LO:LB:g=original	!	!
2G\	.	4r	1B	1d	.
.	.	4G\	.	.	.
4.G\	.	4.G\	.	.	.
!LO:TX:t=P:problem:kreska pseudotaktowa	!	!	!	!	!
8Fny\	.	8Fny\	.	.	.
=36-	=36-	=36-	=36-	=36-	=36-
4E\	.	4E\	1r	0r	4r
4C/	.	16C\LL	.	.	4gg\
.	.	16D\	.	.	.
.	.	16E\	.	.	.
.	.	16F\JJ	.	.	.
8G\L	.	8G\L	.	.	4.gg\
8F\	.	8F\	.	.	.
8E\	.	8E\	.	.	.
8D\J	.	8D\J	.	.	8ffny\
*	*	*custos:C	*	*	*
!LO:TX:t=P:problem:kreska pseudotaktowa	!	!LO:LB:g=original	!	!	!
[1C	.	0C	4r	.	4ee\
.	.	.	4c\	.	16cc\LL
.	.	.	.	.	16dd\
.	.	.	.	.	16ee\
.	.	.	.	.	16ff\JJ
.	.	.	4.c\	.	8gg\L
.	.	.	.	.	8ff\
.	.	.	.	.	8ee\
.	.	.	8B\	.	8dd\J
=37-	=37-	=37-	=37-	=37-	=37-
1C]	.	.	4c\	4r	2ee\
.	.	.	16C/LL	4g\	.
.	.	.	16D/	.	.
.	.	.	16E/	.	.
.	.	.	16Fny/JJ	.	.
.	.	.	8G/L	4.g\	2r
.	.	.	8F/	.	.
.	.	.	8E/	.	.
.	.	.	8D/J	8fny\	.
*	*	*	*	*	*custos:gg
!	!	!	!	!	!LO:LB:g=original
2C/	.	2r	1C	4e\	4r
.	.	.	.	4e\	4gg\
!LO:TX:t=P:problem:kreska pseudotaktowa	!	!	!	!	!
2C/	.	2C/	.	4.e\	4.gg\
!	!	!	!	!LO:TX:t=P:problem:kreska pseudotaktowa	!
.	.	.	.	8d\	8ff\
*custos:C	*	*	*	*	*
!LO:LB:g=original	!	!	!	!	!
=38-	=38-	=38-	=38-	=38-	=38-
1C	.	0C	2r	4c\	4ee\
.	.	.	.	16c\LL	16cc\LL
.	.	.	.	16d\	16dd\
.	.	.	.	16e\	16ee\
.	.	.	.	16f\JJ	16ff\JJ
.	.	.	2G/	8e\L	8gg\L
.	.	.	.	8d\	8ff\
.	.	.	.	8c\	8ee\
.	.	.	.	8B\J	8dd\J
!LO:TX:t=P:problem:kreska pseudotaktowa	!	!	!	!	!
[1C	.	.	0G	1.e	1.cc
=39-	=39-	=39-	=39-	=39-	=39-
1C]	.	1C	.	.	.
.	.	.	.	4d\	4b/
.	.	.	.	4c\	4a/
!LO:MO:mod=0.GG;	!	!LO:MO:mod=0.GG;	!LO:MO:mod=0.G;	!LO:MO:mod=0.d;	!LO:MO:mod=0.b;
0.GGl;;	.	0.GGl;;	0.Gl;;	0.dl;;	0.bl;;
==	==	==	==	==	==
*-	*-	*-	*-	*-	*-
!!!system-decoration: [(s1,s2,s3,s4)]s5
!!!RDF**kern: i = editorial accidental
!!!RDF**kern: l = terminal long
!!!RDF**kern: > = above
!!!RDF**kern: < = below
!!!ENC: Andrzej Gręziak
!!!END: 2022-11-07
!!!ENC: Jan Barakat
!!!END: 2022-11-28
!!!filter-modern: sic -sq | autostem -r | tie -si | shed -e "s/^custos:/Xcustos:/I" | shed -e "s/^(\d+[\/\\]right)/$1yy/I; s/^(\d+[\/\\]left)/$1yy/I" | shed -e "s/-//B" | shed -e "s/TX(.*):t=P:/tx$1:t=P:/LG" | modori -m |
!!!YEC: Copyright 2022 Narodowy Instytut Fryderyka Chopina (https://polishscores.org)
!!!YEM: License CC-BY-4.0 (https://creativecommons.org/licenses/by/4.0)
